X:6970
T:the Kendal Waltz
O:england
M:3/4
A:North-West
R:Waltz
K:A
E2|\
A4c2| e4 c2| e2d2 B2| AGFEFG| A4c2| e4 c2| Bcdefg| a4::\
{^d}e2|\
E3F GE| AGAEcE| B^ABEdB| cBcd^de| E3F GE| AGABcA| af^dBcd| (f2e2):|


